X: 481
T: Scottie
C: Bert Murray
R: jig
B: Bert Murray's "Bon Accord Collection" 1999 p.48
%
Z: 2011 John Chambers <jc:trillian.mit.edu>
M: 6/8
L: 1/8
K: G
|: uB |\
G>GG D>B,D | C>EG D>B,D | G>GG D>GB | d>BG (A2B) |\
G>GG D>B,D | E>CE D>B,D | G,>B,D G>Bd | c>EF G2 :|
ud |\
g>fg B>cd | c>ag f>ed | g>fg B>cd | c>af (g2d) |\
g>fe d>BG | E>FG D>B,D | E>FG A>dc | B>GG G2 ||
d |\
g2g B>cd | c>ag f>ed | g2g B>cd | c>af g2d |\
b>gd B>GD | E>CE D>B,D | G,>B,D G>Bd | c>EF G2 |]

%%sep 2 1 500

